X: 43563
T: Young Collins
R: barndance
M: 4/4
K: Gmajor
|:GABc d2 B2|c2e2A2Bc|d2d2e2dc|B2A2G4:|
E2D2EFG2|A2A2G3A|B2A2Bcd2|e2e2dcBA|
GABc d2 B2|c2e2A2Bc|d2d2e2dc|B2A2G4:|

